sources/design/Outline/oslash.svg

<svg:svg xmlns:cc="http://creativecommons.org/ns#" xmlns:dc="http://purl.org/dc/elements/1.1/" xmlns:inkscape="http://www.inkscape.org/namespaces/inkscape" xmlns:rdf="http://www.w3.org/1999/02/22-rdf-syntax-ns#" xmlns:sodipodi="http://sodipodi.sourceforge.net/DTD/sodipodi-0.dtd" xmlns:svg="http://www.w3.org/2000/svg" xml:space="preserve" width="1000" height="1000" version="1.1" style="clip-rule:evenodd;fill-rule:evenodd;image-rendering:optimizeQuality;shape-rendering:geometricPrecision;text-rendering:geometricPrecision" viewBox="0 0 1000 1000" id="svg10" sodipodi:docname="oslash.svg" inkscape:version="1.0.2 (e86c870879, 2021-01-15)"><svg:metadata id="metadata14"><rdf:RDF><cc:Work rdf:about=""><dc:format>image/svg+xml</dc:format><dc:type rdf:resource="http://purl.org/dc/dcmitype/StillImage" /><dc:title /></cc:Work></rdf:RDF></svg:metadata><sodipodi:namedview pagecolor="#ffffff" bordercolor="#666666" borderopacity="1" objecttolerance="10" gridtolerance="10" guidetolerance="10" inkscape:pageopacity="0" inkscape:pageshadow="2" inkscape:window-width="1920" inkscape:window-height="1007" id="namedview12" showgrid="false" inkscape:zoom="0.84890884" inkscape:cx="176.65442" inkscape:cy="568.64435" inkscape:window-x="1920" inkscape:window-y="0" inkscape:window-maximized="1" inkscape:current-layer="svg10" showguides="true" inkscape:guide-bbox="true" inkscape:document-rotation="0" inkscape:pagecheckerboard="0"><sodipodi:guide position="0,1000" orientation="0,1" id="guide16" inkscape:label="" inkscape:locked="true" inkscape:color="rgb(0,0,255)" /><sodipodi:guide position="1763.3122,2036.1693" orientation="1000,0" id="guide18" /><sodipodi:guide position="0,200" orientation="0,1" id="guide20" inkscape:label="base" inkscape:locked="true" inkscape:color="rgb(0,0,255)" /><inkscape:grid type="xygrid" id="grid24" originx="-473.37552" originy="-489.69235" /><sodipodi:guide position="0,0" orientation="0,1" id="guide34" inkscape:label="bottom" inkscape:locked="true" inkscape:color="rgb(0,0,255)" /><sodipodi:guide position="225.05109,1693.3186" orientation="0,1" id="guide44" inkscape:label="" inkscape:locked="false" inkscape:color="rgb(0,0,255)" /><sodipodi:guide position="0,900" orientation="0,1" id="guide46" inkscape:label="" inkscape:locked="true" inkscape:color="rgb(0,0,255)" /><sodipodi:guide position="523.12559,545.57056" orientation="1,0" id="guide841" inkscape:label="width" />    <sodipodi:guide position="-210.85892,799.74293" orientation="0,-1" id="guide856" /></sodipodi:namedview>
 <svg:defs id="defs4"><inkscape:path-effect effect="fillet_chamfer" id="path-effect860" is_visible="true" lpeversion="1" satellites_param="F,0,0,1,0,0,0,1 @ F,0,0,1,0,0,0,1 @ F,0,0,1,0,0,0,1 @ F,0,0,1,0,0,0,1 @ F,0,0,1,0,0,0,1 @ F,0,0,1,0,25.473039,0,1 @ F,0,0,1,0,18.072288,0,1 @ F,0,0,1,0,0,0,1 @ F,0,0,1,0,0,0,1 @ F,0,0,1,0,0,0,1 @ F,0,0,1,0,0,0,1 @ F,0,0,1,0,0,0,1 @ F,0,0,1,0,0,0,1 @ F,0,0,1,0,37.503075,0,1 @ F,0,0,1,0,21.092948,0,1 @ F,0,0,1,0,0,0,1 @ F,0,0,1,0,0,0,1 | F,0,0,1,0,0,0,1 @ F,0,0,1,0,0,0,1 @ F,0,0,1,0,0,0,1 @ F,0,0,1,0,0,0,1 @ F,0,0,1,0,0,0,1 @ F,0,0,1,0,0,0,1 | F,0,0,1,0,0,0,1 @ F,0,0,1,0,0,0,1 @ F,0,0,1,0,0,0,1 @ F,0,0,1,0,0,0,1 @ F,0,0,1,0,0,0,1 @ F,0,0,1,0,0,0,1" unit="px" method="auto" mode="F" radius="0" chamfer_steps="1" flexible="false" use_knot_distance="true" apply_no_radius="true" apply_with_radius="true" only_selected="true" hide_knots="false" /><inkscape:path-effect effect="spiro" id="path-effect858" is_visible="true" lpeversion="1" /><inkscape:path-effect effect="spiro" id="path-effect859" is_visible="true" lpeversion="1" /><inkscape:path-effect effect="spiro" id="path-effect137" is_visible="true" lpeversion="1" /><inkscape:path-effect effect="spiro" id="path-effect133" is_visible="true" lpeversion="1" /><inkscape:path-effect effect="spiro" id="path-effect114" is_visible="true" lpeversion="1" /><inkscape:path-effect effect="spiro" id="path-effect853" is_visible="true" lpeversion="1" /><inkscape:path-effect effect="spiro" id="path-effect928" is_visible="true" lpeversion="1" /><inkscape:path-effect effect="spiro" id="path-effect921" is_visible="true" lpeversion="1" /><inkscape:path-effect effect="spiro" id="path-effect917" is_visible="true" lpeversion="1" /><inkscape:path-effect effect="spiro" id="path-effect849" is_visible="true" lpeversion="1" /><inkscape:path-effect effect="spiro" id="path-effect851" is_visible="true" lpeversion="1" />
  <svg:style type="text/css" id="style2">
   
    .fil0 {fill:#EF7F1A;fill-rule:nonzero}
   
  </svg:style>
 <inkscape:path-effect effect="spiro" id="path-effect1214" is_visible="true" lpeversion="1" /><inkscape:path-effect effect="spiro" id="path-effect1195" is_visible="true" lpeversion="1" /><inkscape:path-effect effect="spiro" id="path-effect992" is_visible="true" lpeversion="1" /><inkscape:path-effect effect="spiro" id="path-effect1060" is_visible="true" lpeversion="1" /><inkscape:path-effect effect="spiro" id="path-effect1047" is_visible="true" lpeversion="1" /><inkscape:path-effect effect="spiro" id="path-effect1085" is_visible="true" lpeversion="1" /><inkscape:path-effect effect="spiro" id="path-effect1286" is_visible="true" lpeversion="1" /><inkscape:path-effect effect="spiro" id="path-effect117" is_visible="true" lpeversion="1" /></svg:defs>
 
<svg:g id="path857"><svg:path style="color:#000000;clip-rule:nonzero;fill:#1a5fb4;fill-rule:nonzero;stroke-linecap:round;stroke-linejoin:round;-inkscape-stroke:none;paint-order:fill stroke markers;shape-rendering:auto" d="M 263.99023,170.25781 C 222.27197999999999,170.39352 181.27231,181.11179 144.71679999999998,200.14258 C 108.20663999999998,219.14975 76.59220299999998,246.12541000000002 51.33593699999997,277.82227 C 0.7391191199999696,341.32177 -23.131404000000032,422.30391 -21.81250000000003,501.95312 C -20.80374600000003,562.87221 -5.326149100000027,623.19287 22.835936999999973,677.14062 L -4.259765600000026,704.07227 C -26.890604000000025,726.56607 -21.444099000000026,766.34341 6.400390599999973,781.92578 L 69.70703099999997,817.35352 C 92.73248199999998,830.23905 122.79098999999997,821.34491 135.09569999999997,798.00391 L 136.92382999999995,794.53516 C 171.22896999999995,813.95245 209.86752999999996,825.39124 249.38866999999993,827.37305 C 291.9393799999999,829.5067700000001 334.45406999999994,820.80659 372.7851599999999,803.01562 C 411.0823999999999,785.24037 444.5407199999999,758.7775800000001 471.4472699999999,727.13477 C 525.3565999999998,663.73595 551.6772799999999,580.96972 550.9941399999999,499.23828000000003 C 550.4361899999999,432.48385 532.1945499999999,366.36642000000006 498.7695299999999,308.69336000000004 L 516.7832,291.44727000000006 C 544.43738,264.9709500000001 533.7433599999999,215.77177000000006 497.59374999999994,203.16406000000006 L 427.95311999999996,178.87695000000008 C 407.46171999999996,171.73028000000008 385.03741999999994,178.04092000000009 370.72851999999995,193.30273000000008 C 337.38757999999996,178.36307000000008 300.95241999999996,170.13758000000007 263.99022999999994,170.2578100000001 L 263.99023,170.25781 M 264.18555,230.25781 C 295.64372,230.15548 327.52125,238.14589 355.97655999999995,252.70312 C 359.59239999999994,254.55292 363.15755999999993,256.50771000000003 366.6621099999999,258.56055000000003 A 30.003,30.003 0.0 0,0 408.61522999999994,246.17383000000004 L 413.1132799999999,237.24609000000004 L 467.0019499999999,256.04102000000006 L 439.6933599999999,282.18750000000006 A 30.003,30.003 0.0 0,0 435.54491999999993,320.59961000000004 C 470.83816999999993,373.08101000000005 490.46944999999994,436.49565000000007 490.9980499999999,499.73828000000003 C 491.5696499999999,568.126 469.07611999999995,637.2988300000001 425.73632999999995,688.2675800000001 C 404.06188999999995,713.75729 377.25106999999997,734.7959900000001 347.52343999999994,748.5937500000001 C 317.8390299999999,762.3714500000001 284.73234999999994,769.0689600000001 252.39257999999995,767.4472700000001 C 213.54086999999996,765.4990300000001 174.88902999999993,751.2786600000002 144.03905999999995,727.5820300000001 A 30.003,30.003 0.0 0,0 99.22460899999996,737.3828100000002 L 87.935547,758.79687 L 48.177734,736.54883 L 81.253906,703.67187 A 30.003,30.003 0.0 0,0 85.800781,666.91016 C 55.812943,617.14787 39.141621,559.0525 38.179687,500.96094 C 37.072218,434.08037 57.532918,366.32793 98.261719,315.21289 C 118.62818,289.65279000000004 143.99625,268.16072 172.42383,253.36133 C 200.81447,238.58117000000001 232.68408,230.36028000000002 264.18555000000003,230.25781 L 264.18555,230.25781 M 264.0293,252.29297 C 200.31500999999997,252.69289 140.90729999999996,284.34387 101.31835999999998,332.13281 C 61.928404999999984,379.68155 42.967981999999985,440.85008 43.884765999999985,501.22852 C 44.64472099999998,551.27846 58.78872999999999,600.72189 84.61328099999999,643.6015600000001 A 30.003,30.003 0.0 0,0 132.7207,648.0722700000001 C 165.14838,611.6451600000001 196.15311,573.9602500000001 225.74804999999998,535.1972700000001 C 194.94135999999997,578.4619800000002 165.79747999999998,622.9093600000001 138.55273,668.5019500000001 A 30.003,30.003 0.0 0,0 146.73828,708.2089800000001 C 177.7006,730.5744700000001 214.80227000000002,743.5702200000001 252.95312,745.4121100000001 C 318.13691,748.5591200000001 380.66006000000004,718.8493200000001 422.88867000000005,671.1953100000001 C 464.92515000000003,623.75813 485.77456000000006,561.15746 485.30078000000003,499.11719000000005 C 484.86602000000005,442.18582000000004 466.79444,386.02287000000007 433.94922,339.51953000000003 A 30.003,30.003 0.0 0,0 387.44922,336.42578000000003 C 342.77266,384.59921 300.61484,435.08503 260.92578,487.44336 C 300.2482,432.54055 336.84772,375.68822 370.24219,316.99023 A 30.003,30.003 0.0 0,0 358.37305,275.73242 C 329.44438,260.17889 296.87344,252.08681 264.0293,252.29297 M 264.4043,312.29296999999997 C 276.56253999999996,312.21666999999997 288.79517999999996,313.87597 300.61719,317.04101999999995 C 270.05794,368.53669999999994 237.19241,418.66580999999996 201.86719,467.01561999999996 C 175.08552,503.67184 146.97439,539.35899 117.61327999999999,573.9843699999999 C 109.00659999999999,550.3850099999999 104.25679,525.33395 103.87695,500.31835999999987 C 103.16265,453.2752199999999 118.37446999999999,405.59434999999985 147.52148,370.4101599999999 C 176.38449,335.5687999999999 220.82002,312.5665399999999 264.4043,312.2929699999999 L 264.4043,312.29296999999997 M 404.125,407.49023 C 417.58198,436.25769 425.05938,467.96304 425.30078,499.57421999999997 C 425.66817,547.68318 409.00104,596.39856 377.98242,631.40234 C 347.2818,666.04727 300.49861,687.6381299999999 255.84766,685.4824199999999 C 238.76683,684.6577799999999 221.70711,680.4329299999999 205.98047,673.3847699999999 C 234.89652,626.6844699999999 265.68426,581.1414299999999 298.48046999999997,537.08008 C 331.76804,492.35857999999996 367.08797,449.16060999999996 404.125,407.49022999999994 L 404.125,407.49023" id="path25456" /></svg:g></svg:svg>

<svg:svg xmlns:cc="http://creativecommons.org/ns#" xmlns:dc="http://purl.org/dc/elements/1.1/" xmlns:inkscape="http://www.inkscape.org/namespaces/inkscape" xmlns:rdf="http://www.w3.org/1999/02/22-rdf-syntax-ns#" xmlns:sodipodi="http://sodipodi.sourceforge.net/DTD/sodipodi-0.dtd" xmlns:svg="http://www.w3.org/2000/svg" xml:space="preserve" width="1000" height="1000" version="1.1" style="clip-rule:evenodd;fill-rule:evenodd;image-rendering:optimizeQuality;shape-rendering:geometricPrecision;text-rendering:geometricPrecision" viewBox="0 0 1000 1000" id="svg10" sodipodi:docname="oslash.svg" inkscape:version="1.0.2 (e86c870879, 2021-01-15)"><svg:metadata id="metadata14"><rdf:RDF><cc:Work rdf:about=""><dc:format>image/svg+xml</dc:format><dc:type rdf:resource="http://purl.org/dc/dcmitype/StillImage" /><dc:title /></cc:Work></rdf:RDF></svg:metadata><sodipodi:namedview pagecolor="#ffffff" bordercolor="#666666" borderopacity="1" objecttolerance="10" gridtolerance="10" guidetolerance="10" inkscape:pageopacity="0" inkscape:pageshadow="2" inkscape:window-width="1920" inkscape:window-height="1007" id="namedview12" showgrid="false" inkscape:zoom="0.84890884" inkscape:cx="176.65442" inkscape:cy="568.64435" inkscape:window-x="1920" inkscape:window-y="0" inkscape:window-maximized="1" inkscape:current-layer="svg10" showguides="true" inkscape:guide-bbox="true" inkscape:document-rotation="0" inkscape:pagecheckerboard="0"><sodipodi:guide position="0,1000" orientation="0,1" id="guide16" inkscape:label="" inkscape:locked="true" inkscape:color="rgb(0,0,255)" /><sodipodi:guide position="1763.3122,2036.1693" orientation="1000,0" id="guide18" /><sodipodi:guide position="0,200" orientation="0,1" id="guide20" inkscape:label="base" inkscape:locked="true" inkscape:color="rgb(0,0,255)" /><inkscape:grid type="xygrid" id="grid24" originx="-473.37552" originy="-489.69235" /><sodipodi:guide position="0,0" orientation="0,1" id="guide34" inkscape:label="bottom" inkscape:locked="true" inkscape:color="rgb(0,0,255)" /><sodipodi:guide position="225.05109,1693.3186" orientation="0,1" id="guide44" inkscape:label="" inkscape:locked="false" inkscape:color="rgb(0,0,255)" /><sodipodi:guide position="0,900" orientation="0,1" id="guide46" inkscape:label="" inkscape:locked="true" inkscape:color="rgb(0,0,255)" /><sodipodi:guide position="523.12559,545.57056" orientation="1,0" id="guide841" inkscape:label="width" />    <sodipodi:guide position="-210.85892,799.74293" orientation="0,-1" id="guide856" /></sodipodi:namedview>
 <svg:defs id="defs4"><inkscape:path-effect effect="fillet_chamfer" id="path-effect860" is_visible="true" lpeversion="1" satellites_param="F,0,0,1,0,0,0,1 @ F,0,0,1,0,0,0,1 @ F,0,0,1,0,0,0,1 @ F,0,0,1,0,0,0,1 @ F,0,0,1,0,0,0,1 @ F,0,0,1,0,25.473039,0,1 @ F,0,0,1,0,18.072288,0,1 @ F,0,0,1,0,0,0,1 @ F,0,0,1,0,0,0,1 @ F,0,0,1,0,0,0,1 @ F,0,0,1,0,0,0,1 @ F,0,0,1,0,0,0,1 @ F,0,0,1,0,0,0,1 @ F,0,0,1,0,37.503075,0,1 @ F,0,0,1,0,21.092948,0,1 @ F,0,0,1,0,0,0,1 @ F,0,0,1,0,0,0,1 | F,0,0,1,0,0,0,1 @ F,0,0,1,0,0,0,1 @ F,0,0,1,0,0,0,1 @ F,0,0,1,0,0,0,1 @ F,0,0,1,0,0,0,1 @ F,0,0,1,0,0,0,1 | F,0,0,1,0,0,0,1 @ F,0,0,1,0,0,0,1 @ F,0,0,1,0,0,0,1 @ F,0,0,1,0,0,0,1 @ F,0,0,1,0,0,0,1 @ F,0,0,1,0,0,0,1" unit="px" method="auto" mode="F" radius="0" chamfer_steps="1" flexible="false" use_knot_distance="true" apply_no_radius="true" apply_with_radius="true" only_selected="true" hide_knots="false" /><inkscape:path-effect effect="spiro" id="path-effect858" is_visible="true" lpeversion="1" /><inkscape:path-effect effect="spiro" id="path-effect859" is_visible="true" lpeversion="1" /><inkscape:path-effect effect="spiro" id="path-effect137" is_visible="true" lpeversion="1" /><inkscape:path-effect effect="spiro" id="path-effect133" is_visible="true" lpeversion="1" /><inkscape:path-effect effect="spiro" id="path-effect114" is_visible="true" lpeversion="1" /><inkscape:path-effect effect="spiro" id="path-effect853" is_visible="true" lpeversion="1" /><inkscape:path-effect effect="spiro" id="path-effect928" is_visible="true" lpeversion="1" /><inkscape:path-effect effect="spiro" id="path-effect921" is_visible="true" lpeversion="1" /><inkscape:path-effect effect="spiro" id="path-effect917" is_visible="true" lpeversion="1" /><inkscape:path-effect effect="spiro" id="path-effect849" is_visible="true" lpeversion="1" /><inkscape:path-effect effect="spiro" id="path-effect851" is_visible="true" lpeversion="1" />
  <svg:style type="text/css" id="style2">
   
    .fil0 {fill:#EF7F1A;fill-rule:nonzero}
   
  </svg:style>
 <inkscape:path-effect effect="spiro" id="path-effect1214" is_visible="true" lpeversion="1" /><inkscape:path-effect effect="spiro" id="path-effect1195" is_visible="true" lpeversion="1" /><inkscape:path-effect effect="spiro" id="path-effect992" is_visible="true" lpeversion="1" /><inkscape:path-effect effect="spiro" id="path-effect1060" is_visible="true" lpeversion="1" /><inkscape:path-effect effect="spiro" id="path-effect1047" is_visible="true" lpeversion="1" /><inkscape:path-effect effect="spiro" id="path-effect1085" is_visible="true" lpeversion="1" /><inkscape:path-effect effect="spiro" id="path-effect1286" is_visible="true" lpeversion="1" /><inkscape:path-effect effect="spiro" id="path-effect117" is_visible="true" lpeversion="1" /></svg:defs>
 
<svg:g id="path857"><svg:path style="color:#000000;clip-rule:nonzero;fill:#1a5fb4;fill-rule:nonzero;stroke-linecap:round;stroke-linejoin:round;-inkscape-stroke:none;shape-rendering:auto" d="m 263.99023,170.25781 c -41.71825,0.13571 -82.71792,10.85398 -119.27343,29.88477 -36.51016,19.00717 -68.124597,45.98283 -93.380863,77.67969 -50.59681788,63.4995 -74.467341,144.48164 -73.148437,224.13085 1.008754,60.91909 16.4863509,121.23975 44.648437,175.1875 l -27.0957026,26.93165 c -22.6308384,22.4938 -17.1843334,62.27114 10.6601562,77.85351 l 63.3066404,35.42774 c 23.025451,12.88553 53.083959,3.99139 65.388669,-19.34961 l 1.82813,-3.46875 c 34.30514,19.41729 72.9437,30.85608 112.46484,32.83789 42.55071,2.13372 85.0654,-6.56646 123.39649,-24.35743 38.29724,-17.77525 71.75556,-44.23804 98.66211,-75.88085 53.90933,-63.39882 80.23001,-146.16505 79.54687,-227.89649 -0.55795,-66.75443 -18.79959,-132.87186 -52.22461,-190.54492 l 18.01367,-17.24609 c 27.65418,-26.47632 16.96016,-75.6755 -19.18945,-88.28321 l -69.64063,-24.28711 c -20.4914,-7.14667 -42.9157,-0.83603 -57.2246,14.42578 -33.34094,-14.93966 -69.7761,-23.16515 -106.73829,-23.04492 z m 0.19532,60 c 31.45817,-0.10233 63.3357,7.88808 91.79101,22.44531 3.61584,1.8498 7.181,3.80459 10.68555,5.85743 a 30.003,30.003 0 0 0 41.95312,-12.38672 l 4.49805,-8.92774 53.88867,18.79493 -27.30859,26.14648 a 30.003,30.003 0 0 0 -4.14844,38.41211 c 35.29325,52.4814 54.92453,115.89604 55.45313,179.13867 0.5716,68.38772 -21.92193,137.56055 -65.26172,188.5293 -21.67444,25.48971 -48.48526,46.52841 -78.21289,60.32617 -29.68441,13.7777 -62.79109,20.47521 -95.13086,18.85352 -38.85171,-1.94824 -77.50355,-16.16861 -108.35352,-39.86524 a 30.003,30.003 0 0 0 -44.814451,9.80078 L 87.935547,758.79687 48.177734,736.54883 81.253906,703.67187 a 30.003,30.003 0 0 0 4.546875,-36.76171 C 55.812943,617.14787 39.141621,559.0525 38.179687,500.96094 37.072218,434.08037 57.532918,366.32793 98.261719,315.21289 c 20.366461,-25.5601 45.734531,-47.05217 74.162111,-61.85156 28.39064,-14.78016 60.26025,-23.00105 91.76172,-23.10352 z m -0.15625,22.03516 c -63.71429,0.39992 -123.122,32.0509 -162.71094,79.83984 -39.389955,47.54874 -58.350378,108.71727 -57.433594,169.09571 0.759955,50.04994 14.903964,99.49337 40.728515,142.37304 a 30.003,30.003 0 0 0 48.107419,4.47071 c 32.42768,-36.42711 63.43241,-74.11202 93.02735,-112.875 -30.80669,43.26471 -59.95057,87.71209 -87.19532,133.30468 a 30.003,30.003 0 0 0 8.18555,39.70703 c 30.96232,22.36549 68.06399,35.36124 106.21484,37.20313 65.18379,3.14701 127.70694,-26.56279 169.93555,-74.2168 42.03648,-47.43718 62.88589,-110.03785 62.41211,-172.07812 -0.43476,-56.93137 -18.50634,-113.09432 -51.35156,-159.59766 a 30.003,30.003 0 0 0 -46.5,-3.09375 C 342.77266,384.59921 300.61484,435.08503 260.92578,487.44336 300.2482,432.54055 336.84772,375.68822 370.24219,316.99023 A 30.003,30.003 0 0 0 358.37305,275.73242 C 329.44438,260.17889 296.87344,252.08681 264.0293,252.29297 Z m 0.375,60 c 12.15824,-0.0763 24.39088,1.583 36.21289,4.74805 -30.55925,51.49568 -63.42478,101.62479 -98.75,149.9746 -26.78167,36.65622 -54.8928,72.34337 -84.25391,106.96875 -8.60668,-23.59936 -13.35649,-48.65042 -13.73633,-73.66601 -0.7143,-47.04314 14.49752,-94.72401 43.64453,-129.9082 28.86301,-34.84136 73.29854,-57.84362 116.88282,-58.11719 z m 139.7207,95.19726 c 13.45698,28.76746 20.93438,60.47281 21.17578,92.08399 0.36739,48.10896 -16.29974,96.82434 -47.31836,131.82812 -30.70062,34.64493 -77.48381,56.23579 -122.13476,54.08008 -17.08083,-0.82464 -34.14055,-5.04949 -49.86719,-12.09765 28.91605,-46.7003 59.70379,-92.24334 92.5,-136.30469 33.28757,-44.7215 68.6075,-87.91947 105.64453,-129.58985 z" id="path25374" /></svg:g></svg:svg>
